X:104
T:Fanny Power
T:Planxty Fanny Powers
C:Turlough O'Carolan
S:The Carolan Albums, Maire Ni Chathasaigh
Z:Nigel Gatherer
M:6/8
L:1/8
K:G
z|G2 D G>AB|c2 B A2 G|G>FE D>ED|F2 G A>Bc|B>AG B>cd|
e2 A A2 G|G>FE DGF|G2 G G2::B|dB/c/d dB/c/d|GBG GBG|
ec/d/e ec/d/e|AcA AcA|B>cd e>fg|fga dec|B>AG A/B/cF|G2 G G2:|
<end>
<start>
